X: 58
T:In Continental Mood
M:3/4
L:1/8
C:Andy Cutting
R:Mazurka
Z:Steve Mansfield
K:G
ga | b2 bbab | g2 gbab | g2 gbab | gabagf | e2 eefg | d2 ddfg |
c2 cefg | a2 aaga | b2 bbab | g2 gbab | g2 gbab | gabagf | e2 eefg |
d2 defg | a2 bagf | g3dBA || G2BGBd | F2BFBd | E2GEGB | AABAGF |
G2BGBd | F2BFBd | E2GEGB | A4GA | B2_eB_ef | gagfef |
d2fdfa | bc'bagf | e2eefg | d2defg | a2bagf | g4 ||

